X:539
T:B539-  Young Phaon (strove the bliss to taste)
S:J. Banister, 1679
Q:1/4=120
L:1/4
M:C|
K:Bb
f|fdec|(dc3/4)B/4AG|efd3/2c/|c3":s:"B|\
A3/2B/c(d/e/)|(fe3/4)d/4ec|d(c/B/)B3/2A/|B3||d|\
d3/2A/BG|(e/f/ e3/4)d/4c3/2G/|ABG3/2F/|F3":s:"f|\
g3/2f/e3/2d/|(e/d/ c3/4)B/4e3/2c/|(d/c/ d3/4)e/4c3/2B/|.B3|]
